lib/brands/logos/ban-contact.svg

<svg xmlns="http://www.w3.org/2000/svg" fill="none" aria-hidden="true" viewBox="0 0 131 83"><g id="BanContact"><g id="Group"><path id="Bancontact" fill="#1E3764" d="M5 78.8118V61.4332H10.3625C14.2603 61.4332 16.7678 62.898 16.7678 65.9269C16.7678 67.6399 15.9734 68.8316 14.8562 69.5267C16.4699 70.2714 17.4133 71.7114 17.4133 73.6727C17.4133 77.1733 14.8562 78.8118 10.8839 78.8118H5ZM8.45089 68.6577H11.0081C12.5721 68.6577 13.2425 67.8881 13.2425 66.473C13.2425 64.9585 12.0259 64.4621 10.3873 64.4621H8.45089L8.45089 68.6577ZM8.45089 75.783H10.586C12.6714 75.783 13.8879 75.2616 13.8879 73.6231C13.8879 72.0094 12.8452 71.3391 10.8839 71.3391H8.45089L8.45089 75.783ZM24.1055 79.1097C20.7042 79.1097 18.9911 77.4464 18.9911 75.212C18.9911 72.7541 21.0021 71.3141 23.9813 71.2893C24.7216 71.3029 25.46 71.3693 26.1909 71.488V70.8921C26.1909 69.3778 25.322 68.6577 23.6586 68.6577C22.538 68.6437 21.4253 68.846 20.3814 69.2536L19.7608 66.5724C20.8283 66.1254 22.5414 65.8275 24.0558 65.8275C27.7053 65.8275 29.5176 67.764 29.5176 71.1156V78.0174C28.4998 78.5387 26.5881 79.1097 24.1055 79.1097H24.1055ZM26.1909 76.3043V73.6479C25.6121 73.5192 25.0212 73.4526 24.4282 73.4492C23.2862 73.4492 22.3924 73.8962 22.3924 75.0631C22.3924 76.1058 23.1372 76.652 24.453 76.652C25.0513 76.6715 25.6461 76.5525 26.1909 76.3043H26.1909ZM31.9297 78.8118V66.9199C33.7138 66.2032 35.6179 65.8325 37.5406 65.8275C41.1652 65.8275 43.2507 67.615 43.2507 70.9169V78.8118H39.8246V71.1652C39.8246 69.4522 39.0301 68.6577 37.5157 68.6577C36.7637 68.6472 36.0184 68.7997 35.3309 69.1047V78.8118L31.9297 78.8118ZM55.2236 66.5724L54.5781 69.2784C53.6912 68.8941 52.7389 68.6834 51.7727 68.6577C49.7617 68.6577 48.6693 70.0729 48.6693 72.4066C48.6693 74.9637 49.8114 76.2795 51.9465 76.2795C52.8993 76.2535 53.8369 76.0338 54.7022 75.634L55.2484 78.3898C54.1242 78.8901 52.9035 79.1359 51.6733 79.1097C47.5521 79.1097 45.1688 76.5526 45.1688 72.5058C45.1688 68.4839 47.5273 65.8275 51.4748 65.8275C52.7618 65.8212 54.0368 66.0745 55.2236 66.5724L55.2236 66.5724ZM62.625 79.1097C58.8017 79.1097 56.4183 76.4533 56.4183 72.4562C56.4183 68.484 58.8017 65.8275 62.625 65.8275C66.4731 65.8275 68.8068 68.484 68.8068 72.4562C68.8068 76.4533 66.4731 79.1097 62.625 79.1097ZM62.625 76.2795C64.3877 76.2795 65.3062 74.8148 65.3062 72.4562C65.3062 70.1225 64.3877 68.6577 62.625 68.6577C60.8871 68.6577 59.9189 70.1225 59.9189 72.4562C59.9189 74.8148 60.8871 76.2795 62.625 76.2795V76.2795ZM70.7894 78.8118V66.9199C72.5735 66.2032 74.4776 65.8325 76.4002 65.8275C80.0249 65.8275 82.1103 67.615 82.1103 70.9169V78.8118H78.6842V71.1652C78.6842 69.4522 77.8898 68.6577 76.3754 68.6577C75.6234 68.6472 74.878 68.7997 74.1906 69.1047V78.8118L70.7894 78.8118ZM89.8369 79.1097C86.8826 79.1097 85.3682 77.496 85.3682 74.2189V68.8564H83.6799V66.1254H85.3682V63.3696L88.7942 63.1959V66.1254H91.55V68.8564H88.7942V74.1693C88.7942 75.6092 89.3901 76.2795 90.5072 76.2795C90.95 76.2784 91.3912 76.2285 91.823 76.1306L91.9969 78.8864C91.2878 79.0434 90.5631 79.1183 89.8369 79.1097V79.1097ZM98.4846 79.1097C95.0833 79.1097 93.3703 77.4464 93.3703 75.212C93.3703 72.7541 95.3812 71.3141 98.3604 71.2893C99.1007 71.3029 99.8391 71.3693 100.57 71.488V70.8921C100.57 69.3778 99.7011 68.6577 98.0377 68.6577C96.9171 68.6437 95.8044 68.846 94.7605 69.2536L94.1399 66.5724C95.2074 66.1254 96.9205 65.8275 98.4349 65.8275C102.084 65.8275 103.897 67.764 103.897 71.1156V78.0174C102.879 78.5387 100.967 79.1097 98.4846 79.1097V79.1097ZM100.57 76.3043V73.6479C99.9912 73.5192 99.4002 73.4526 98.8073 73.4492C97.6653 73.4492 96.7715 73.8962 96.7715 75.0631C96.7715 76.1058 97.5163 76.652 98.8321 76.652C99.4305 76.6715 100.025 76.5525 100.57 76.3043V76.3043ZM115.619 66.5724L114.973 69.2784C114.086 68.8941 113.134 68.6834 112.168 68.6577C110.157 68.6577 109.064 70.0729 109.064 72.4066C109.064 74.9637 110.206 76.2795 112.341 76.2795C113.294 76.2535 114.232 76.0338 115.097 75.634L115.643 78.3898C114.519 78.89 113.299 79.1359 112.068 79.1097C107.947 79.1097 105.564 76.5526 105.564 72.5058C105.564 68.4839 107.922 65.8275 111.87 65.8275C113.157 65.8212 114.432 66.0745 115.619 66.5724ZM123.151 79.1097C120.197 79.1097 118.682 77.496 118.682 74.2189V68.8564H116.994V66.1254H118.682V63.3696L122.108 63.1959V66.1254H124.864V68.8564H122.108V74.1693C122.108 75.6092 122.704 76.2795 123.821 76.2795C124.264 76.2784 124.705 76.2285 125.137 76.1306L125.311 78.8864C124.602 79.0434 123.877 79.1183 123.151 79.1097Z"/><path id="blue-symbol" fill="url(#paint0_linear_2762_247246)" d="M28.8976 52.7439C47.0265 52.7439 56.091 40.6579 65.1555 28.5719H5V52.7439H28.8976Z"/><path id="yellow-symbol" fill="url(#paint1_linear_2762_247246)" d="M101.413 4.40002C83.2845 4.40002 74.22 16.486 65.1555 28.5721H125.311V4.40002H101.413Z"/></g></g><defs><linearGradient id="paint0_linear_2762_247246" x1="17.1676" x2="61.1739" y1="41.7738" y2="25.4286" gradientUnits="userSpaceOnUse"><stop stop-color="#005AB9"/><stop offset="1" stop-color="#1E3764"/></linearGradient><linearGradient id="paint1_linear_2762_247246" x1="68.7978" x2="115.523" y1="30.6686" y2="14.7269" gradientUnits="userSpaceOnUse"><stop stop-color="#FBA900"/><stop offset="1" stop-color="#FFD800"/></linearGradient></defs></svg>

<svg xmlns="http://www.w3.org/2000/svg" fill="none" aria-hidden="true" viewBox="0 0 131 83"><path fill="#1E3764" d="M5 78.812V61.433h5.363c3.897 0 6.405 1.465 6.405 4.494 0 1.713-.795 2.905-1.912 3.6 1.614.744 2.557 2.184 2.557 4.146 0 3.5-2.557 5.139-6.53 5.139H5Zm3.45-10.154h2.558c1.564 0 2.235-.77 2.235-2.185 0-1.514-1.217-2.01-2.856-2.01H8.451v4.195Zm0 7.125h2.136c2.085 0 3.302-.521 3.302-2.16 0-1.614-1.043-2.284-3.004-2.284H8.45v4.444Zm15.655 3.327c-3.4 0-5.114-1.664-5.114-3.898 0-2.458 2.011-3.898 4.99-3.923.74.014 1.479.08 2.21.199v-.596c0-1.514-.869-2.234-2.532-2.234a8.71 8.71 0 0 0-3.278.596l-.62-2.682c1.067-.447 2.78-.745 4.295-.745 3.65 0 5.462 1.937 5.462 5.289v6.901c-1.018.522-2.93 1.093-5.413 1.093Zm2.086-2.806v-2.656a8.341 8.341 0 0 0-1.763-.199c-1.142 0-2.036.447-2.036 1.614 0 1.043.745 1.589 2.061 1.589.598.02 1.193-.1 1.738-.348Zm5.739 2.508V66.92a15.158 15.158 0 0 1 5.61-1.093c3.625 0 5.71 1.788 5.71 5.09v7.895h-3.425v-7.647c0-1.713-.795-2.507-2.31-2.507a5.208 5.208 0 0 0-2.184.447v9.707H31.93Zm23.294-12.24-.646 2.706a7.562 7.562 0 0 0-2.805-.62c-2.011 0-3.104 1.415-3.104 3.749 0 2.557 1.142 3.873 3.278 3.873a7.027 7.027 0 0 0 2.755-.646l.546 2.756a8.355 8.355 0 0 1-3.575.72c-4.12 0-6.504-2.557-6.504-6.604 0-4.022 2.358-6.678 6.306-6.678a9.569 9.569 0 0 1 3.749.744Zm7.401 12.538c-3.823 0-6.207-2.657-6.207-6.654 0-3.972 2.384-6.629 6.207-6.629 3.848 0 6.182 2.657 6.182 6.63 0 3.996-2.334 6.653-6.182 6.653Zm0-2.83c1.763 0 2.681-1.465 2.681-3.824 0-2.334-.918-3.798-2.681-3.798-1.738 0-2.706 1.465-2.706 3.798 0 2.359.968 3.823 2.706 3.823Zm8.164 2.532V66.92a15.158 15.158 0 0 1 5.611-1.093c3.625 0 5.71 1.788 5.71 5.09v7.895h-3.426v-7.647c0-1.713-.794-2.507-2.309-2.507a5.208 5.208 0 0 0-2.184.447v9.707h-3.402Zm19.048.298c-2.954 0-4.469-1.614-4.469-4.891v-5.363H83.68v-2.73h1.688V63.37l3.426-.174v2.93h2.756v2.73h-2.756v5.313c0 1.44.596 2.11 1.713 2.11a6.018 6.018 0 0 0 1.316-.148l.174 2.755a9.473 9.473 0 0 1-2.16.224Zm8.648 0c-3.402 0-5.115-1.664-5.115-3.898 0-2.458 2.011-3.898 4.99-3.923.74.014 1.48.08 2.21.199v-.596c0-1.514-.869-2.234-2.532-2.234a8.71 8.71 0 0 0-3.278.596l-.62-2.682c1.067-.447 2.78-.745 4.295-.745 3.649 0 5.462 1.937 5.462 5.289v6.901c-1.018.522-2.93 1.093-5.412 1.093Zm2.085-2.806v-2.656a8.342 8.342 0 0 0-1.763-.199c-1.142 0-2.035.447-2.035 1.614 0 1.043.744 1.589 2.06 1.589.599.02 1.193-.1 1.738-.348Zm15.049-9.732-.646 2.706a7.561 7.561 0 0 0-2.805-.62c-2.011 0-3.104 1.415-3.104 3.749 0 2.557 1.142 3.873 3.277 3.873a7.027 7.027 0 0 0 2.756-.646l.546 2.756a8.353 8.353 0 0 1-3.575.72c-4.121 0-6.504-2.557-6.504-6.604 0-4.022 2.358-6.678 6.306-6.678a9.57 9.57 0 0 1 3.749.744Zm7.532 12.538c-2.954 0-4.469-1.614-4.469-4.891v-5.363h-1.688v-2.73h1.688V63.37l3.426-.174v2.93h2.756v2.73h-2.756v5.313c0 1.44.596 2.11 1.713 2.11a6.02 6.02 0 0 0 1.316-.148l.174 2.755a9.473 9.473 0 0 1-2.16.224Z"/><path fill="url(#a)" d="M28.898 52.744c18.128 0 27.193-12.086 36.258-24.172H5v24.172h23.898Z"/><path fill="url(#b)" d="M101.413 4.4c-18.129 0-27.193 12.086-36.257 24.172h60.155V4.4h-23.898Z"/><defs><linearGradient id="a" x1="17.168" x2="61.174" y1="41.774" y2="25.429" gradientUnits="userSpaceOnUse"><stop stop-color="#005AB9"/><stop offset="1" stop-color="#1E3764"/></linearGradient><linearGradient id="b" x1="68.798" x2="115.523" y1="30.669" y2="14.727" gradientUnits="userSpaceOnUse"><stop stop-color="#FBA900"/><stop offset="1" stop-color="#FFD800"/></linearGradient></defs></svg>
